hero/solid/chevron-double-right.svg

<svg width="24" height="24" viewBox="0 0 24 24" fill="none" xmlns="http://www.w3.org/2000/svg">
<path fill-rule="evenodd" clip-rule="evenodd" d="M13.2803 11.4697C13.5732 11.7626 13.5732 12.2374 13.2803 12.5303L5.78033 20.0303C5.48744 20.3232 5.01256 20.3232 4.71967 20.0303C4.42678 19.7374 4.42678 19.2626 4.71967 18.9697L11.6893 12L4.71967 5.03033C4.42678 4.73744 4.42678 4.26256 4.71967 3.96967C5.01256 3.67678 5.48744 3.67678 5.78033 3.96967L13.2803 11.4697Z" fill="#0F172A"/>
<path fill-rule="evenodd" clip-rule="evenodd" d="M19.2803 11.4697C19.5732 11.7626 19.5732 12.2374 19.2803 12.5303L11.7803 20.0303C11.4874 20.3232 11.0126 20.3232 10.7197 20.0303C10.4268 19.7374 10.4268 19.2626 10.7197 18.9697L17.6893 12L10.7197 5.03033C10.4268 4.73744 10.4268 4.26256 10.7197 3.96967C11.0126 3.67678 11.4874 3.67678 11.7803 3.96967L19.2803 11.4697Z" fill="#0F172A"/>
</svg>

<svg viewBox="0 0 24 24" xmlns="http://www.w3.org/2000/svg"><path fill-rule="evenodd" d="M4.72 3.97v0c.29-.3.76-.3 1.06-.001l7.5 7.5v0c.29.29.29.76 0 1.06l-7.5 7.5H5.77c-.31.28-.78.26-1.06-.04 -.27-.29-.27-.74-.001-1.03l6.97-6.97 -6.97-6.97v0c-.3-.3-.3-.77 0-1.06Zm6 0v0c.29-.3.76-.3 1.06-.001l7.5 7.5v0c.29.29.29.76 0 1.06l-7.5 7.5v0c-.29.3-.76.31-1.06.03 -.31-.29-.32-.76-.04-1.06 .01-.02.02-.03.03-.04l6.97-6.97 -6.97-6.97V5.01c-.3-.3-.3-.77 0-1.06Z"/></svg>
